!!!!SEGMENT: Snf0110-Cum_aegrotasset_Job--Munich_16.krn
!!!id: Snf0110
!!!AGN: Motet
!!!SCT: Edwards, Gasch, Tröster (2021)
!!!voices: 4
!!!COM: Ludwig Senfl
!!!OTL: Cum aegrotasset Job (Munich 16)
**kern	**text	**kern	**text	**kern	**text	**kern	**text
*part4	*part4	*part3	*part3	*part2	*part2	*part1	*part1
*staff4	*staff4	*staff3	*staff3	*staff2	*staff2	*staff1	*staff1
*I"Bassus	*	*I"Tenor	*	*I"Altus	*	*I"Superius	*
*I'B	*	*I'T	*	*I'A	*	*I'S	*
*clefF4	*	*clefGv2	*	*clefGv2	*	*clefG2	*
*	*	*	*	*	*	*	*
*k[]	*	*k[]	*	*k[]	*	*k[]	*
*	*	*	*	*	*	*	*
*M2/1	*	*M2/1	*	*M2/1	*	*M2/1	*
*met(C|)	*	*met(C|)	*	*met(C|)	*	*met(C|)	*
!!section: Prima pars: Cum aegrotasset Job
!!!OMD: Prima pars: Cum aegrotasset Job
=1	=1	=1	=1	=1	=1	=1	=1
0r	.	0r	.	0c	Cum	0r	.
=2	=2	=2	=2	=2	=2	=2	=2
0r	.	0r	.	1c	ae-	0r	.
.	.	.	.	1f	.	.	.
=3	=3	=3	=3	=3	=3	=3	=3
0C	Cum	0r	.	[0e	.	0r	.
=4	=4	=4	=4	=4	=4	=4	=4
1C	ae-	0r	.	1e]	.	0r	.
1F	.	.	.	1f	-gro-	.	.
=5	=5	=5	=5	=5	=5	=5	=5
[0E	.	0r	.	2.g	-tas-	0g	Cum
.	.	.	.	4f	.	.	.
.	.	.	.	4e	.	.	.
.	.	.	.	4d	.	.	.
.	.	.	.	[2e	.	.	.
=6	=6	=6	=6	=6	=6	=6	=6
1E]	.	0r	.	4e]	.	1g	ae-
.	.	.	.	4d	.	.	.
.	.	.	.	4c	.	.	.
.	.	.	.	4B	.	.	.
1F	-gro-	.	.	1A	.	1cc	.
=7	=7	=7	=7	=7	=7	=7	=7
2.G	-tas-	[0G	Cum	2G	.	0b	.
.	.	.	.	2.g	.	.	.
4F	.	.	.	.	.	.	.
4E	.	.	.	.	.	.	.
4D	.	.	.	4f	.	.	.
2E	-set	.	.	4e	.	.	.
.	.	.	.	4d	.	.	.
=8	=8	=8	=8	=8	=8	=8	=8
1C	Job,	0G]	.	1e	.	1cc	-gro-
1r	.	.	.	2d	-set	[1dd	-tas-
.	.	.	.	[2g	Job,	.	.
=9	=9	=9	=9	=9	=9	=9	=9
0r	.	1G	ae-	4g]	.	1dd]	.
.	.	.	.	4f	.	.	.
.	.	.	.	2d	.	.	.
.	.	1c	.	1e	.	1cc	-set
=10	=10	=10	=10	=10	=10	=10	=10
1G	cum	0B	.	2d	.	0dd	Job,
.	.	.	.	2.g	Job,	.	.
1G	ae-	.	.	.	.	.	.
.	.	.	.	4f	.	.	.
.	.	.	.	2d	.	.	.
=11	=11	=11	=11	=11	=11	=11	=11
1c	.	1c	-gro-	1e	.	0r	.
2B	-gro-	[1d	-tas-	2r	.	.	.
[2B	-tas-	.	.	[2d	fle-	.	.
=12	=12	=12	=12	=12	=12	=12	=12
4B]	.	1d]	.	4d]	.	0gg	fle-
4A	.	.	.	4c	.	.	.
4G	.	.	.	4B	.	.	.
4F	.	.	.	4A	.	.	.
2E	.	1c	-set	1G	.	.	.
2E	-set	.	.	.	.	.	.
=13	=13	=13	=13	=13	=13	=13	=13
1D	Job,	0d	Job,	2A	.	0ff	.
.	.	.	.	1a	.	.	.
2r	.	.	.	.	.	.	.
2D	fle-	.	.	2f	.	.	.
=14	=14	=14	=14	=14	=14	=14	=14
2E	.	0r	.	1g	.	1ee	.
2C	.	.	.	.	.	.	.
2D	-vit,	.	.	2f	.	1ff	.
2d	fle-	.	.	4e	.	.	.
.	.	.	.	4d	.	.	.
=15	=15	=15	=15	=15	=15	=15	=15
1e	.	0g	fle-	1c	-vit,	0ee	-vit
1c	.	.	.	2r	.	.	.
.	.	.	.	2e	fle-	.	.
=16	=16	=16	=16	=16	=16	=16	=16
1d	-vit,	0f	.	2f	.	0dd	.
.	.	.	.	2.d	.	.	.
2r	.	.	.	.	.	.	.
.	.	.	.	4c	.	.	.
2D	fle-	.	.	2d	.	.	.
=17	=17	=17	=17	=17	=17	=17	=17
2E	.	1e	.	2B	.	0r	.
2C	.	.	.	2c	.	.	.
1D	-vit	1f	.	2A	-vit	.	.
.	.	.	.	2a	et	.	.
=18	=18	=18	=18	=18	=18	=18	=18
1r	.	0e	-vit	1g	di-	1r	.
1A	et	.	.	1a	.	1cc	et
=19	=19	=19	=19	=19	=19	=19	=19
2D	di-	0d	.	2.f	.	1dd	di-
1D	-xit:	.	.	.	.	.	.
.	.	.	.	4e	.	.	.
.	.	.	.	4d	.	1dd	-xit:
.	.	.	.	4c	.	.	.
[2G	no-	.	.	[2B	.	.	.
=20	=20	=20	=20	=20	=20	=20	=20
4G]	.	1r	.	4B]	.	0gg	no-
4F	.	.	.	4A	.	.	.
4E	.	.	.	4G	.	.	.
4D	.	.	.	4F	.	.	.
1E	.	1c	et	1G	.	.	.
=21	=21	=21	=21	=21	=21	=21	=21
1D	-ti,	1d	di-	2A	-xit,	0ff	.
.	.	.	.	2a	et	.	.
2r	.	1d	-xit:	2a	di-	.	.
2d	et	.	.	2a	-xit:	.	.
=22	=22	=22	=22	=22	=22	=22	=22
2e	di-	0r	.	2g	no-	0ee	.
2e	-xit:	.	.	2g	-ti	.	.
2c	no-	.	.	1g	me-	.	.
2c	-ti	.	.	.	.	.	.
=23	=23	=23	=23	=23	=23	=23	=23
2d	me-	0r	.	1f	-i,	0ff	.
2d	-i,	.	.	.	.	.	.
2r	.	.	.	2r	.	.	.
2D	et	.	.	2d	et	.	.
=24	=24	=24	=24	=24	=24	=24	=24
2E	di-	0g	no-	2B	di-	0ee	-ti
2E	-xit:	.	.	2B	-xit:	.	.
2C	no-	.	.	2c	no-	.	.
2C	-ti	.	.	2c	-ti	.	.
=25	=25	=25	=25	=25	=25	=25	=25
2D	me-	0f	.	1A	me-	0dd	.
2D	-i,	.	.	.	.	.	.
2r	.	.	.	1d	.	.	.
[2d	no-	.	.	.	.	.	.
=26	=26	=26	=26	=26	=26	=26	=26
2d]	.	0e	.	0A	-i,	0ee	me-
4c#i	.	.	.	.	.	.	.
4B	.	.	.	.	.	.	.
2c#i	.	.	.	.	.	.	.
2c#i	-ti	.	.	.	.	.	.
=27	=27	=27	=27	=27	=27	=27	=27
1d	me-	0f	.	2r	.	0dd	-i
.	.	.	.	1d	no-	.	.
1D	-i,	.	.	.	.	.	.
.	.	.	.	2d	-ti	.	.
=28	=28	=28	=28	=28	=28	=28	=28
2.A	no-	0e	-ti	0c	me-	0r	.
4G	.	.	.	.	.	.	.
4A	.	.	.	.	.	.	.
4B	.	.	.	.	.	.	.
[2c	.	.	.	.	.	.	.
=29	=29	=29	=29	=29	=29	=29	=29
2c]	.	0d	.	0G	-i,	0r	.
4B	.	.	.	.	.	.	.
4A	.	.	.	.	.	.	.
1B	-ti	.	.	.	.	.	.
=30	=30	=30	=30	=30	=30	=30	=30
1c	me-	0e	me-	0g	.	1cc	et
1C	-i,	.	.	.	.	1cc	pro-
=31	=31	=31	=31	=31	=31	=31	=31
1G	.	0d	-i	2r	.	0dd	-pin-
.	.	.	.	2.g	no-	.	.
1B	.	.	.	.	.	.	.
.	.	.	.	4f	.	.	.
.	.	.	.	2d	.	.	.
=32	=32	=32	=32	=32	=32	=32	=32
2.A	no-	1c	et	1a	.	0ee	.
4G	.	.	.	.	.	.	.
4A	.	1c	pro-	1e	-ti	.	.
4B	.	.	.	.	.	.	.
[2c	.	.	.	.	.	.	.
=33	=33	=33	=33	=33	=33	=33	=33
2c]	.	0d	-pin-	1g	me-	0dd	.
4B	.	.	.	.	.	.	.
4A	.	.	.	.	.	.	.
2B	.	.	.	1G	-i	.	.
2B	-ti	.	.	.	.	.	.
=34	=34	=34	=34	=34	=34	=34	=34
1c	me-	0e	.	2r	.	0cc	-qui
.	.	.	.	1g	et	.	.
1C	-i,	.	.	.	.	.	.
.	.	.	.	2g	pro-	.	.
=35	=35	=35	=35	=35	=35	=35	=35
2r	.	0d	.	4f	-pin-	0dd	.
.	.	.	.	4e	.	.	.
1G	et	.	.	4d	.	.	.
.	.	.	.	4c	.	.	.
.	.	.	.	2B	.	.	.
2G	pro-	.	.	2B	-qui	.	.
=36	=36	=36	=36	=36	=36	=36	=36
2A	-pin-	0c	-qui	2c	me-	0r	.
2F	-qui	.	.	1A	.	.	.
1E	me-	.	.	.	.	.	.
.	.	.	.	2G	.	.	.
=37	=37	=37	=37	=37	=37	=37	=37
1D	-i	0d	.	1A	-i	1dd	me-
2r	.	.	.	2r	.	1dd	-i
[2G	de-	.	.	[2B	de-	.	.
=38	=38	=38	=38	=38	=38	=38	=38
2G]	.	1d	me-	2B]	.	1r	.
2G	-re-	.	.	2B	-re-	.	.
2.G	-lin-	1d	-i	2G	-lin-	2r	.
.	.	.	.	[2g	-que-	2dd	de-
4A	.	.	.	.	.	.	.
=39	=39	=39	=39	=39	=39	=39	=39
2B	.	0r	.	2g]	.	2dd	-re-
1c	-que-	.	.	2.e	.	1ee	-lin-
.	.	.	.	4f	.	.	.
2B	.	.	.	2g	.	2dd	.
=40	=40	=40	=40	=40	=40	=40	=40
2A	.	1r	.	4a	.	1cc	-que-
.	.	.	.	4e	.	.	.
2F	.	.	.	1a	.	.	.
1G	.	2r	.	.	.	1b	.
.	.	2d	de-	2g	.	.	.
=41	=41	=41	=41	=41	=41	=41	=41
2D	.	2d	-re-	2f	.	[0a	-runt
1A	.	1e	-lin-	1c	-runt	.	.
2D	.	2d	.	2f	.	.	.
=42	=42	=42	=42	=42	=42	=42	=42
2A	.	1c	-que-	2e	.	1a]	.
2F	.	.	.	1a	me,	.	.
1G	.	1B	.	.	.	1r	.
.	.	.	.	2g	.	.	.
=43	=43	=43	=43	=43	=43	=43	=43
1F	-runt	1A	-runt	1a	.	1cc	me,
2r	.	2r	.	2g	.	2b	.
2A	me,	[2c	me,	2e	.	[2a	.
=44	=44	=44	=44	=44	=44	=44	=44
2F	.	2c]	.	4f	.	2a]	.
.	.	.	.	4e	.	.	.
2G	.	2B	.	4d	.	1g	.
.	.	.	.	4c	.	.	.
1D	.	1A	.	1d	.	.	.
.	.	.	.	.	.	2f#i	.
=45	=45	=45	=45	=45	=45	=45	=45
1r	.	1G	.	2r	.	0g	.
.	.	.	.	2g	ci-	.	.
1G	ci-	1r	.	1d	-ves	.	.
=46	=46	=46	=46	=46	=46	=46	=46
0D	-ves	1F	ci-	0a	me-	0r	.
.	.	1A	-ves	.	.	.	.
=47	=47	=47	=47	=47	=47	=47	=47
0A	me-	1c	me-	1e	-i	0r	.
.	.	1c	-i	2.e	ver-	.	.
.	.	.	.	4f	.	.	.
=48	=48	=48	=48	=48	=48	=48	=48
1E	-i	1e	ver-	2g	.	0r	.
.	.	.	.	2g	-mes	.	.
2A	ver-	1c	-mes	1e	sunt,	.	.
2A	-mes	.	.	.	.	.	.
=49	=49	=49	=49	=49	=49	=49	=49
1D	sunt,	1d	.	2r	.	1f	ci-
.	.	.	.	1f	ci-	.	.
1d	ci-	1d	sunt,	.	.	1a	-ves
.	.	.	.	2f	-ves	.	.
=50	=50	=50	=50	=50	=50	=50	=50
0A	-ves	0r	.	1.e	me-	1cc	me-
.	.	.	.	.	.	1cc	-i
.	.	.	.	2a	-i	.	.
=51	=51	=51	=51	=51	=51	=51	=51
0c	me-	1e	ca-	4g	ver-	1ee	ver-
.	.	.	.	4f	.	.	.
.	.	.	.	4e	.	.	.
.	.	.	.	4d	.	.	.
.	.	1g	.	2e	.	1cc	-mes
.	.	.	.	2e	-mes	.	.
=52	=52	=52	=52	=52	=52	=52	=52
1G	-i	1g	-ro	1d	sunt,	1dd	.
2d	ver-	1f	.	1r	.	1dd	sunt,
2d	-mes	.	.	.	.	.	.
=53	=53	=53	=53	=53	=53	=53	=53
2A	sunt,	1e	me-	1c	ca-	0r	.
1c	.	.	.	.	.	.	.
.	.	1d	.	1G	-ro	.	.
2B	.	.	.	.	.	.	.
=54	=54	=54	=54	=54	=54	=54	=54
1c	.	0e	-a	[0g	me-	1ee	ca-
1c	ca-	.	.	.	.	1gg	.
=55	=55	=55	=55	=55	=55	=55	=55
1G	-ro	0r	.	1g]	.	1gg	-ro
1d	me-	.	.	1a	-a	1ff	.
=56	=56	=56	=56	=56	=56	=56	=56
1A	-a	0r	.	2r	.	1ee	me-
.	.	.	.	2a	im-	.	.
1r	.	.	.	2f	-mu-	1dd	.
.	.	.	.	[2g	-ta-	.	.
=57	=57	=57	=57	=57	=57	=57	=57
2r	.	1c	im-	4g]	.	0ee	-a
.	.	.	.	4f	.	.	.
1A	im-	.	.	4e	.	.	.
.	.	.	.	4d	.	.	.
.	.	1c	-mu-	2e	.	.	.
2A	-mu-	.	.	4d	.	.	.
.	.	.	.	4c	.	.	.
=58	=58	=58	=58	=58	=58	=58	=58
2G	-ta-	0d	-ta-	2B	.	0r	.
4F	.	.	.	4A	.	.	.
4E	.	.	.	4G	.	.	.
2D	.	.	.	2A	.	.	.
2D	-ta	.	.	2B	-ta	.	.
=59	=59	=59	=59	=59	=59	=59	=59
0C	est,	0e	.	2c	est,	1cc	im-
.	.	.	.	2G	.	.	.
.	.	.	.	1g	.	1cc	-mu-
=60	=60	=60	=60	=60	=60	=60	=60
0G	.	0d	.	2r	.	0dd	-ta-
.	.	.	.	2g	im-	.	.
.	.	.	.	2g	-mu-	.	.
.	.	.	.	[2g	-ta-	.	.
=61	=61	=61	=61	=61	=61	=61	=61
0r	.	0c	-ta	4g]	.	0ee	.
.	.	.	.	4f	.	.	.
.	.	.	.	4e	.	.	.
.	.	.	.	4d	.	.	.
.	.	.	.	2e	.	.	.
.	.	.	.	4d	.	.	.
.	.	.	.	4c	.	.	.
=62	=62	=62	=62	=62	=62	=62	=62
2r	.	1d	.	4B	.	0dd	.
.	.	.	.	4G	.	.	.
1G	im-	.	.	1g	.	.	.
.	.	1d	est,	.	.	.	.
2G	-mu-	.	.	2g	-ta	.	.
=63	=63	=63	=63	=63	=63	=63	=63
2A	-ta-	0r	.	1e	est,	1cc	-ta
2A	-ta	.	.	.	.	.	.
1D	est	.	.	2r	.	1dd	.
.	.	.	.	[2f	di-	.	.
=64	=64	=64	=64	=64	=64	=64	=64
2r	.	1d	di-	4f]	.	0dd	est,
.	.	.	.	4e	.	.	.
1G	di-	.	.	4d	.	.	.
.	.	.	.	4c	.	.	.
.	.	1d	-es	2B	.	.	.
2F	-es	.	.	2A	-es	.	.
=65	=65	=65	=65	=65	=65	=65	=65
2E	me-	1e	.	2B	me-	0r	.
2C	.	.	.	2c	.	.	.
2.E	.	1e	me-	1G	-i,	.	.
4F	.	.	.	.	.	.	.
=66	=66	=66	=66	=66	=66	=66	=66
1G	.	0d	-i	2r	.	1dd	di-
.	.	.	.	1g	di-	.	.
1D	-i	.	.	.	.	1dd	-es
.	.	.	.	2f	-es	.	.
=67	=67	=67	=67	=67	=67	=67	=67
0r	.	1r	.	2e	me-	1ee	.
.	.	.	.	2c	.	.	.
.	.	1c	bre-	2.e	.	1ee	me-
.	.	.	.	4f	.	.	.
=68	=68	=68	=68	=68	=68	=68	=68
1G	bre-	1B	.	2g	.	1dd	-i
.	.	.	.	2d	-i	.	.
2A	-vi-	1A	-vi-	2r	.	1cc	bre-
2F	-a-	.	.	2f	bre-	.	.
=69	=69	=69	=69	=69	=69	=69	=69
1G	-bun-	1B	-a-	2d	-vi-	1b	.
.	.	.	.	2e	-a-	.	.
1F	-tur,	1c	-bun-	1f	-bun-	1a	-vi-
=70	=70	=70	=70	=70	=70	=70	=70
0r	.	1B	.	2d	.	1b	-a-
.	.	.	.	1g	.	.	.
.	.	1A	.	.	.	1cc	-bun-
.	.	.	.	2f#i	.	.	.
=71	=71	=71	=71	=71	=71	=71	=71
1r	.	1G	-tur,	2g	-tur,	1b	.
.	.	.	.	2.d	bre-	.	.
1F	bre-	2r	.	.	.	1a	.
.	.	.	.	4c	-vi-	.	.
.	.	2d	bre-	2A	-a-	.	.
=72	=72	=72	=72	=72	=72	=72	=72
1E	.	2e	-vi-	2B	-bun-	1g	-tur,
.	.	2c	-a-	2G	.	.	.
1D	-vi-	1d	-bun-	1A	.	1r	.
=73	=73	=73	=73	=73	=73	=73	=73
1E	-a-	2B	-tur,	1G	-tur,	2r	.
.	.	2c	bre-	.	.	2g	bre-
1F	-bun-	2A	-vi-	1r	.	2a	-vi-
.	.	2d	-a-	.	.	2f	-a-
=74	=74	=74	=74	=74	=74	=74	=74
1E	.	2G	-bun-	1r	.	2g	-bun-
.	.	1c	.	.	.	2e	-tur,
1D	.	.	.	1f	bre-	2r	.
.	.	2B	.	.	.	2dd	bre-
=75	=75	=75	=75	=75	=75	=75	=75
1C	-tur,	1c	.	1e	.	2ee	-vi-
.	.	.	.	.	.	2cc	-a-
1r	.	1G	-tur,	1d	-vi-	1dd	-bun-
=76	=76	=76	=76	=76	=76	=76	=76
2r	.	1g	.	1e	-a-	2b	-tur,
2c	bre-	.	.	.	.	2cc	bre-
2d	-vi-	1r	.	1f	-bun-	2a	-vi-
2B	-a-	.	.	.	.	2dd	-a-
=77	=77	=77	=77	=77	=77	=77	=77
2c	-bun-	0r	.	1e	.	2g	-bun-
2C	-tur,	.	.	.	.	1cc	.
2r	.	.	.	1d	.	.	.
2G	bre-	.	.	.	.	2b	.
=78	=78	=78	=78	=78	=78	=78	=78
2A	-vi-	1c	bre-	2c	-tur,	1cc	-tur,
2F	-a-	.	.	2f	bre-	.	.
1G	-bun-	1B	.	2d	-vi-	1r	.
.	.	.	.	2g	-a-	.	.
=79	=79	=79	=79	=79	=79	=79	=79
1F	-tur,	1A	-vi-	4a	-bun-	1cc	bre-
.	.	.	.	4g	.	.	.
.	.	.	.	4f	.	.	.
.	.	.	.	4e	.	.	.
2r	.	1B	-a-	2d	-tur,	1b	.
2G	bre-	.	.	2g	bre-	.	.
=80	=80	=80	=80	=80	=80	=80	=80
2A	-vi-	1c	-bun-	2e	-vi-	1a	-vi-
2F	-a-	.	.	2f	-a-	.	.
1G	-bun-	1B	.	2d	-bun-	1b	-a-
.	.	.	.	2g	.	.	.
=81	=81	=81	=81	=81	=81	=81	=81
1F	-tur,	1A	.	2a	-tur,	1cc	-bun-
.	.	.	.	2f	bre-	.	.
2r	.	2G	.	2g	-vi-	2b	.
2A	bre-	[2c	.	2e	-a-	[2a	.
=82	=82	=82	=82	=82	=82	=82	=82
2F	-vi-	4c]	.	2f	-bun-	2a]	.
.	.	4d	.	.	.	.	.
2G	-a-	2B	.	2d	-tur,	1g	.
1D	-bun-	1A	.	2r	.	.	.
.	.	.	.	2d	bre-	2f#i	.
=83	=83	=83	=83	=83	=83	=83	=83
1E	-tur,	[0Gl	-tur.	2B	-vi-	[0gl	-tur.
.	.	.	.	2c	-a-	.	.
2r	.	.	.	2B	-bun-	.	.
2E	bre-	.	.	4c	.	.	.
.	.	.	.	4B	.	.	.
=84	=84	=84	=84	=84	=84	=84	=84
2E	-vi-	0G_	.	4c	.	0g_	.
.	.	.	.	4B	.	.	.
2E	-a-	.	.	1e	.	.	.
1C	-bun-	.	.	.	.	.	.
.	.	.	.	4d	.	.	.
.	.	.	.	4c	.	.	.
=	=	=	=	=	=	=	=
00G	-tur.	00G]	.	00B	-tur.	00g]	.
=||	=||	=||	=||	=||	=||	=||	=||
*M2/1	*	*M2/1	*	*M2/1	*	*M2/1	*
*met(C|)	*	*met(C|)	*	*met(C|)	*	*met(C|)	*
!!section: Secunda pars: Videte, omnes populi
!!!OMD: Secunda pars: Videte, omnes populi
1c	Vi-	0F	Vi-	0r	.	1r	.
2.A	-de-	.	.	.	.	1cc	Vi-
4G	.	.	.	.	.	.	.
=85	=85	=85	=85	=85	=85	=85	=85
2.F	.	0A	-de-	0r	.	2.a	-de-
4E	.	.	.	.	.	4g	.
1D	.	.	.	.	.	1f	.
=86	=86	=86	=86	=86	=86	=86	=86
0C	-te,	0c	-te,	1g	Vi-	1e	-te,
.	.	.	.	2.e	-de-	1ee	o-
.	.	.	.	4d	.	.	.
=87	=87	=87	=87	=87	=87	=87	=87
2.c	o-	1c	o-	4e	.	2ee	-mnes
.	.	.	.	4f	.	.	.
.	.	.	.	1g	.	1ee	po-
4B	.	.	.	.	.	.	.
2A	.	1c	-mnes	.	.	.	.
2A	-mnes	.	.	2f	.	4dd	.
.	.	.	.	.	.	4cc	.
=88	=88	=88	=88	=88	=88	=88	=88
2.G	po-	1d	.	2g	-te,	2.b	.
.	.	.	.	2.G	o-	.	.
4F	.	.	.	.	.	4a	.
2.E	.	[1e	po-	.	.	2.g	.
.	.	.	.	4A	.	.	.
.	.	.	.	2B	-mnes	.	.
4D	.	.	.	.	.	4f	.
=89	=89	=89	=89	=89	=89	=89	=89
2C	.	1e]	.	2c	po-	2e	.
2C	-pu-	.	.	2c	-pu-	2g	.
1D	-li,	[1d	.	1A	-li,	2.f	.
.	.	.	.	.	.	4e	.
=90	=90	=90	=90	=90	=90	=90	=90
1r	.	1d]	.	0r	.	2d	.
.	.	.	.	.	.	2f	-pu-
1A	o-	1c	-pu-	.	.	1e	-li,
=91	=91	=91	=91	=91	=91	=91	=91
1D	-mnes	1d	.	2.a	po-	2r	.
.	.	.	.	.	.	1f	po-
.	.	.	.	4g	.	.	.
2.d	po-	1d	-li,	2.f	.	.	.
.	.	.	.	.	.	4e	.
4c	.	.	.	4e	.	4d	.
=92	=92	=92	=92	=92	=92	=92	=92
2.B	.	0r	.	2d	.	2.dd	.
.	.	.	.	2.d	-pu-	.	.
4A	.	.	.	.	.	4cc	.
2.G	.	.	.	.	.	2.b	.
.	.	.	.	4c	.	.	.
.	.	.	.	[2B	.	.	.
4F	.	.	.	.	.	4a	.
=93	=93	=93	=93	=93	=93	=93	=93
2.E	-pu-	1e	si	4B]	.	2.g	-pu-
.	.	.	.	4A	.	.	.
.	.	.	.	1G	.	.	.
4D	.	.	.	.	.	4f	.
1C	-li,	1g	.	.	.	2e	-li,
.	.	.	.	[2c	.	[2ee	si
=94	=94	=94	=94	=94	=94	=94	=94
1c	si	1g	est	4c]	.	4ee]	.
.	.	.	.	4d	.	4dd	.
.	.	.	.	2e	.	4cc	.
.	.	.	.	.	.	4b	.
1d	.	1f	.	2f	.	2a	.
.	.	.	.	2d	.	[2dd	.
=95	=95	=95	=95	=95	=95	=95	=95
1A	est	1e	do-	1a	-li,	2dd]	.
.	.	.	.	.	.	2cc#i	.
2B	.	1d	.	2r	.	2dd	est
[2G	do-	.	.	2d	si	[2b	do-
=96	=96	=96	=96	=96	=96	=96	=96
2G]	.	0d	-lor	1g	est	2b]	.
4F	.	.	.	.	.	4a	.
4E	.	.	.	.	.	4g	.
2F	.	.	.	2r	.	2a	.
2G	-lor	.	.	2G	do-	2b	.
=97	=97	=97	=97	=97	=97	=97	=97
2C	.	0e	.	1c	.	1g	-lor
2.c	si-	.	.	.	.	.	.
.	.	.	.	1A	-lor	1cc	.
4B	.	.	.	.	.	.	.
4A	.	.	.	.	.	.	.
4G	.	.	.	.	.	.	.
=98	=98	=98	=98	=98	=98	=98	=98
2A	.	1c	si-	1a	si-	1cc	.
4G	.	.	.	.	.	.	.
4F	.	.	.	.	.	.	.
2E	.	1c	-mi-	1g	-mi-	1r	.
2E	-mi-	.	.	.	.	.	.
=99	=99	=99	=99	=99	=99	=99	=99
0D	-lis	1d	.	2f	.	2r	.
.	.	.	.	2.a	.	2.ff	si-
.	.	[1d	-lis	.	.	.	.
.	.	.	.	4g	.	4ee	.
.	.	.	.	4f	.	4dd	.
.	.	.	.	4e	.	4cc	.
=100	=100	=100	=100	=100	=100	=100	=100
1r	.	0d]	.	4f	.	2dd	.
.	.	.	.	4d	.	.	.
.	.	.	.	1g	.	4cc	.
.	.	.	.	.	.	4b	.
2r	.	.	.	.	.	2a	.
2D	sic-	.	.	2f#i	.	2a	-mi-
=101	=101	=101	=101	=101	=101	=101	=101
4E	.	0r	.	2g	-lis	1g	-lis
4C	.	.	.	.	.	.	.
2.c	.	.	.	2.e	sic-	.	.
.	.	.	.	.	.	2r	.
4B	.	.	.	4d	.	.	.
4A	.	.	.	4c	.	[2cc	sic-
4G	.	.	.	4B	.	.	.
=102	=102	=102	=102	=102	=102	=102	=102
2A	.	0r	.	4c	.	2cc]	.
.	.	.	.	4A	.	.	.
4G	.	.	.	1d	.	4b	.
4F	.	.	.	.	.	4a	.
1E	.	.	.	.	.	1g	.
.	.	.	.	2c#i	.	.	.
=103	=103	=103	=103	=103	=103	=103	=103
0D	-ut,	0d	sic-	2d	-ut,	2f	-ut,
.	.	.	.	2.a	si-	2.ff	si-
.	.	.	.	4g	.	4ee	.
.	.	.	.	4f	.	4dd	.
.	.	.	.	4e	.	4cc	.
=104	=104	=104	=104	=104	=104	=104	=104
1r	.	0d	-ut	4f	.	2dd	.
.	.	.	.	4d	.	.	.
.	.	.	.	1g	.	4cc	.
.	.	.	.	.	.	4b	.
2r	.	.	.	.	.	1a	-mi-
2F	sic-	.	.	2f#i	-mi-	.	.
=105	=105	=105	=105	=105	=105	=105	=105
4E	.	[0e	.	1g	-lis	1g	-lis
4C	.	.	.	.	.	.	.
2.c	.	.	.	.	.	.	.
.	.	.	.	2r	.	1cc	.
4B	.	.	.	.	.	.	.
4A	.	.	.	[2a	sic-	.	.
4G	.	.	.	.	.	.	.
=106	=106	=106	=106	=106	=106	=106	=106
2A	.	0e_	.	2a]	.	1r	.
4G	.	.	.	2a	-ut	.	.
4F	.	.	.	.	.	.	.
[1E	.	.	.	[1g	do-	2r	.
.	.	.	.	.	.	[2gg	sic-
=107	=107	=107	=107	=107	=107	=107	=107
1E]	.	0e]	.	1g]	.	4gg]	.
.	.	.	.	.	.	4ff	.
.	.	.	.	.	.	4ee	.
.	.	.	.	.	.	4dd	.
1C	-ut	.	.	1g	-lor	2ee	.
.	.	.	.	.	.	4dd	.
.	.	.	.	.	.	4cc	.
=108	=108	=108	=108	=108	=108	=108	=108
1G	do-	[0d	do-	1g	me-	1b	.
2D	-lor,	.	.	[1f	-us,	1a	-ut
2d	do-	.	.	.	.	.	.
=109	=109	=109	=109	=109	=109	=109	=109
2.d	-lor,	0d_	.	1f]	.	2r	.
.	.	.	.	.	.	2dd	do-
4c	.	.	.	.	.	.	.
2.B	.	.	.	2r	.	2.dd	-lor,
.	.	.	.	2d	do-	.	.
4A	.	.	.	.	.	4cc	.
=110	=110	=110	=110	=110	=110	=110	=110
2G	.	0d]	.	2.d	-lor,	2b	.
2F	.	.	.	.	.	2a	.
.	.	.	.	4c	.	.	.
1G	.	.	.	4B	.	1b	.
.	.	.	.	4G	.	.	.
.	.	.	.	2g	.	.	.
=111	=111	=111	=111	=111	=111	=111	=111
1D	.	[0d	-lor	2f	.	1a	.
.	.	.	.	2a	do-	.	.
2r	.	.	.	2.a	-lor	1r	.
2d	do-	.	.	.	.	.	.
.	.	.	.	4g	.	.	.
=112	=112	=112	=112	=112	=112	=112	=112
2.d	-lor,	0d_	.	2.f	.	2r	.
.	.	.	.	.	.	2dd	do-
4c	.	.	.	4e	.	.	.
2.B	.	.	.	2d	.	2.dd	-lor,
.	.	.	.	[2g	me-	.	.
4A	.	.	.	.	.	4cc	.
=113	=113	=113	=113	=113	=113	=113	=113
2G	.	0d]	.	2g]	.	2b	.
2F	.	.	.	2a	.	2a	.
1G	.	.	.	1g	.	1b	.
=114	=114	=114	=114	=114	=114	=114	=114
2A	.	0c	.	2e	.	1a	.
2F	.	.	.	2f	.	.	.
1C	.	.	.	1e	.	2r	.
.	.	.	.	.	.	2g	do-
=115	=115	=115	=115	=115	=115	=115	=115
2r	.	[0B	.	1d	-us,	2.g	-lor
2G	do-	.	.	.	.	.	.
.	.	.	.	.	.	4f	.
2.G	-lor,	.	.	2r	.	2e	.
.	.	.	.	2G	do-	2d	.
4F	.	.	.	.	.	.	.
=116	=116	=116	=116	=116	=116	=116	=116
2E	.	0B_	.	1G	-lor,	1e	.
2G	do-	.	.	.	.	.	.
2.G	-lor,	.	.	2r	.	1d	.
.	.	.	.	2G	do-	.	.
4F	.	.	.	.	.	.	.
=117	=117	=117	=117	=117	=117	=117	=117
2E	.	0B]	.	1G	-lor	1r	.
1G	do-	.	.	.	.	.	.
.	.	.	.	2r	.	2.d	me-
2G	-lor	.	.	[2d	me-	.	.
.	.	.	.	.	.	4e	.
=118	=118	=118	=118	=118	=118	=118	=118
2D	me-	0A	.	2d]	.	2f	.
2C	.	.	.	2e	.	1g	.
1D	-us,	.	.	1d	-us,	.	.
.	.	.	.	.	.	2f#i	.
=119	=119	=119	=119	=119	=119	=119	=119
2r	.	0B	.	1r	.	0g	-us,
1G	do-	.	.	.	.	.	.
.	.	.	.	2.d	me-	.	.
2G	-lor	.	.	.	.	.	.
.	.	.	.	4e	.	.	.
=120	=120	=120	=120	=120	=120	=120	=120
2D	me-	0A	.	2f	.	0r	.
2C	.	.	.	1g	.	.	.
1D	-us,	.	.	.	.	.	.
.	.	.	.	2f#i	.	.	.
=121	=121	=121	=121	=121	=121	=121	=121
2r	.	[0G	me-	1g	-us,	0r	.
2d	do-	.	.	.	.	.	.
2.d	-lor,	.	.	2r	.	.	.
.	.	.	.	2d	do-	.	.
4c	.	.	.	.	.	.	.
=122	=122	=122	=122	=122	=122	=122	=122
2B	.	0G_	.	2.d	-lor,	2r	.
2B	do-	.	.	.	.	2dd	do-
.	.	.	.	4c	.	.	.
2.B	-lor,	.	.	2B	.	2.dd	-lor,
.	.	.	.	2B	do-	.	.
4A	.	.	.	.	.	4cc	.
=123	=123	=123	=123	=123	=123	=123	=123
2G	.	0G_	.	2.B	-lor,	2b	.
2G	do-	.	.	.	.	2b	do-
.	.	.	.	4A	.	.	.
2.G	-lor,	.	.	2G	.	2.b	-lor,
.	.	.	.	2B	do-	.	.
4F	.	.	.	.	.	4a	.
=124	=124	=124	=124	=124	=124	=124	=124
2E	.	0G_	.	2.B	-lor	2g	.
2E	do-	.	.	.	.	2g	do-
.	.	.	.	4A	.	.	.
2.E	-lor	.	.	2G	.	2.g	-lor
.	.	.	.	2B	me-	.	.
4D	.	.	.	.	.	4f	.
=125	=125	=125	=125	=125	=125	=125	=125
2C	.	0G_	.	2c	.	2e	.
2G	me-	.	.	2B	.	2d	me-
2E	.	.	.	2G	.	1e	-us,
2C	.	.	.	[2c	.	.	.
=126	=126	=126	=126	=126	=126	=126	=126
1G	.	0G]	.	2c]	.	1d	.
.	.	.	.	2B	.	.	.
1C	-us,	.	.	2c	.	1r	.
.	.	.	.	2e	.	.	.
=127	=127	=127	=127	=127	=127	=127	=127
0r	.	[0Gl	-us.	1d	-us,	2r	.
.	.	.	.	.	.	2dd	do-
.	.	.	.	2r	.	2.dd	-lor
.	.	.	.	2g	do-	.	.
.	.	.	.	.	.	4cc	.
=128	=128	=128	=128	=128	=128	=128	=128
2r	.	0G_	.	2.g	-lor	1b	.
2G	do-	.	.	.	.	.	.
.	.	.	.	4f	.	.	.
2C	-lor	.	.	2e	.	2cc	.
2G	me-	.	.	2d	.	2b	.
=129	=129	=129	=129	=129	=129	=129	=129
2E	.	0G_	.	1e	me-	2g	.
2C	.	.	.	.	.	1cc	me-
1G	.	.	.	1d	.	.	.
.	.	.	.	.	.	2b	.
=130	=130	=130	=130	=130	=130	=130	=130
0C	-us.	0G_	.	1.c	.	2cc	.
.	.	.	.	.	.	1ee	.
.	.	.	.	[2e	.	4dd	.
.	.	.	.	.	.	4cc	.
=131	=131	=131	=131	=131	=131	=131	=131
[0Gl	.	0G_	.	2e]	.	[0bl	-us.
.	.	.	.	4d	.	.	.
.	.	.	.	4c	.	.	.
.	.	.	.	2B	.	.	.
.	.	.	.	2e	.	.	.
=132	=132	=132	=132	=132	=132	=132	=132
00G]	.	00G]	.	00dl	.	00b]	.
==	==	==	==	==	==	==	==
*-	*-	*-	*-	*-	*-	*-	*-
!!!system-decoration: [*]
!!!RDF**kern: i = editorial accidental
!!!RDF**kern: l = terminal long
!!!PTL: <i> New Senfl Edition: Motets for Four Voices (A-I) </i>
!!!PPR: Hollitzer Verlag
!!!PC#: Denkmäler der Tonkunst in Österreich 163.1
!!!PDT: 2021
!!!PED: Scott Lee Edwards, Stefan Gasch, and Sonja Tröster
!!!YEC: Copyright 2021 Denkmäler der Tonkunst in Österreich
!!!YEM: CC-BY-NC 4.0 (https://creativecommons.org/licenses/by-nc/4.0/legalcode)
!!!EED: Benjamin Ory
!!!EEV: 2023/12/6
!!!verovio: header true
!!!header-left: @{PTL}\n@{PED}, eds.\n@{PC#} (@{PDT})&nbsp;\n
!!!header-right:
!!!header-center:
